src/assets/icons/paypal.svg

<svg width="14" height="14" viewBox="0 0 14 14" fill="none" xmlns="http://www.w3.org/2000/svg">
<g id="paypal">
<path id="Vector" d="M4.51789 8.22997C4.41026 8.82238 3.98235 11.5858 3.85634 12.3672C3.84672 12.4232 3.82572 12.4442 3.76447 12.4442H1.46923C1.23559 12.4442 1.06583 12.2403 1.09733 12.0154L2.9008 0.533981C2.94718 0.237342 3.21144 0.0124482 3.51596 0.0124482C8.20269 0.0124482 8.59646 -0.102175 9.79352 0.364223C11.6425 1.08351 11.8122 2.8187 11.1472 4.69567C10.4857 6.62864 8.91672 7.45906 6.83587 7.48356C5.49967 7.50456 4.6964 7.26742 4.51789 8.22997ZM12.0783 3.78738C12.0231 3.74713 12.0012 3.73137 11.9864 3.82762C11.9251 4.17939 11.8297 4.52243 11.716 4.86457C10.4883 8.37787 7.08525 8.07247 5.42355 8.07247C5.23541 8.07247 5.11291 8.17397 5.08841 8.36298C4.39275 12.6971 4.25449 13.6019 4.25449 13.6019C4.22386 13.8206 4.36212 14 4.58088 14H6.53486C6.79912 14 7.01788 13.8057 7.07038 13.5397C7.09226 13.3726 7.03625 13.7279 7.51315 10.7212C7.65491 10.0422 7.9533 10.1131 8.41444 10.1131C10.5994 10.1131 12.304 9.22402 12.8115 6.64614C13.0111 5.57247 12.9524 4.44191 12.0783 3.78738Z" fill="black"/>
</g>
</svg>

<svg xmlns="http://www.w3.org/2000/svg" fill="none" viewBox="0 0 14 14"><path fill="#000" d="M4.518 8.23c-.108.592-.536 3.356-.662 4.137-.01.056-.03.077-.092.077H1.47a.374.374 0 0 1-.372-.429L2.901.534a.625.625 0 0 1 .615-.522c4.687 0 5.08-.114 6.278.352 1.848.72 2.018 2.455 1.353 4.332-.661 1.933-2.23 2.763-4.311 2.788-1.336.02-2.14-.217-2.318.746m7.56-4.443c-.055-.04-.077-.056-.092.04a7 7 0 0 1-.27 1.038c-1.228 3.513-4.63 3.207-6.292 3.207-.189 0-.311.102-.336.291-.695 4.334-.834 5.239-.834 5.239-.03.219.108.398.327.398h1.954a.55.55 0 0 0 .535-.46c.022-.167-.034.188.443-2.819.142-.679.44-.608.901-.608 2.185 0 3.89-.889 4.398-3.467.2-1.074.14-2.204-.734-2.859"/></svg>
